X: 1930
T: Tickle Me Timothy Quick
B: australian traditional tunes wiki
M:6/8
L:1/8
R: Jig
Q: 3/8=100
K:G
V:1 
|"G"g3d3|B2cd3|"D7"c2df2e|"G"d3-d3|"D7"ABcB2c|"G"d3-d3|"D7"ABcB2A|"G"G3-G3|
gfg ded|"D7"BcB "G"G3|"D7"ABcB2A|"G"G3-GBc|ddd "D7"dBc|"G"ddd "D7"dBc|ddd e2f|"G"g3-g3||
% abcbook-tune_id 6342d5bee7db3110a4db3ade


% abcbook-boost 0
% abcbook-tablature 
% abcbook-transpose 
% abcbook-lastupdated 1665324488569
% abcbook-soundfonts 
% abcbook-repeats 1
% NFF Book 2014

